X:1
T:Washington, LM
T:Washington, LM
T:Carl Fowler Price, 1905
T:Public Domain Courtesy of the Cyber Hymnal™
C:Carl Fowler Price, 1905
Z:Public Domain
Z:Courtesy of the Cyber Hymnal™
%%score ( 1 2 ) ( 3 4 )
L:1/8
M:4/4
K:F
V:1 treble 
V:2 treble 
V:3 bass 
V:4 bass 
V:1
 [CF]4 [CF]2 [CF]2 | [FG]4 G4 | [DB]4 (A2 G2) | A8 | [DA]4 [DB]2 [EA]2 | [DA]4 [Fd]4 | c4 [^G=B]4 | %7
 [EA]8 | [_Ec]4 [Dd]2 [Ac]2 | [Ac]4 [GB]4 | (A2 c2) B2 A2 | [GB]8 | [Gc]4 [Gd]2 [Ge]2 | %13
 [Ff]4 (B2 A2) | [FG]4 [EG]4 | [CF]8 |] %16
V:2
 x8 | x4 (E2 _E2) | x4 D4 | (D4 ^C4) | x8 | x8 | (E2 A2) x4 | x8 | x8 | x8 | G4 ^F4 | x8 | x8 | %13
 x4 F4 | x8 | x8 |] %16
V:3
 [F,A,]4 [A,C]2 [F,A,]2 | [C,C]4 [C,C]4 | G,4 [G,B,]4 | ([F,A,]4 [E,G,]4) | %4
 [D,F,]4 [D,G,]2 [^C,G,]2 | [D,F,]4 [D,A,]4 | (A,2 C2) (E2 D2) | [A,C]8 | [F,A,]4 [^F,A,]2 [F,D]2 | %9
 [G,_E]4 [G,D]4 | _E4 [D,D]4 | ([G,D]4 [F,_D]4) | [E,C]4 [D,=B,]2 [^C,_B,]2 | %13
 [D,A,]4 ([G,,B,]2 [A,,C]2) | [B,,D]4 (C2 B,2) | [F,A,]8 |] %16
V:4
 x8 | x8 | G,4 x4 | x8 | x8 | x8 | E,4 E,4 | x8 | x8 | x8 | (C2 A,2) x4 | x8 | x8 | x8 | x4 C,4 | %15
 x8 |] %16

